X: 14241
T: Furrows End, The
R: waltz
M: 3/4
K: Amajor
|:CD|E3 (A ce)|d2 c2 B2|c2 CE Ad|c2 B2 A2|
(FA A3) F|(EA A3) B/c/|(B6-|B2) C2 D2|
E3 (A ce)|d2 c2 B2|c2 CE Ad|c2 B2 A2|
(FA A3) d|c4 B2|(A6-|A4):|
c>d|e4 A2|e2 d2 c2|d2 DF Ad|f2 e3 d|
c3 B AF|(EA A3) B/c/|(B6-|B4) cd|
e4 A2|e2 d2 c2|d2 DF Ad|f2 e3 d|
c(A-A3) c/d/|c4 B2|(A6-|A4) cd|
e4 A2|e2 d2 c2|d2 DF Ad|f2 e3 d|
c3 B AF|(EA A3) B/c/|(B6-|B2) C2 D2|
E3 A ce|d2 c2 B2|c2 CE Ad|c2 B2 A2|
(FA A3) d|c4 B2|(A6-|A4) z2||

